icons/svg/seamark_big/landmark_statue.svg

<?xml version="1.0" encoding="UTF-8" standalone="no"?>
<svg
   xmlns:dc="http://purl.org/dc/elements/1.1/"
   xmlns:cc="http://creativecommons.org/ns#"
   xmlns:rdf="http://www.w3.org/1999/02/22-rdf-syntax-ns#"
   xmlns:svg="http://www.w3.org/2000/svg"
   xmlns="http://www.w3.org/2000/svg"
   xmlns:sodipodi="http://sodipodi.sourceforge.net/DTD/sodipodi-0.dtd"
   xmlns:inkscape="http://www.inkscape.org/namespaces/inkscape"
   width="1060"
   height="1060"
   id="svg2"
   version="1.1"
   inkscape:version="0.48.4 r9939"
   sodipodi:docname="landmark_mosque.svg">
  <defs
     id="defs13">
    <inkscape:path-effect
       effect="gears"
       id="path-effect3774"
       is_visible="true"
       teeth="6"
       phi="-1.2" />
    <inkscape:path-effect
       effect="bend_path"
       id="path-effect3772"
       is_visible="false"
       bendpath="m 95.790098,316.51174 c 144.429032,-206.42506 223.313032,-11.7428 339.548092,0"
       prop_scale="1.19"
       scale_y_rel="false"
       vertical="false"
       bendpath-nodetypes="cc" />
  </defs>
  <sodipodi:namedview
     pagecolor="#ffffff"
     bordercolor="#666666"
     borderopacity="1"
     objecttolerance="10"
     gridtolerance="10"
     guidetolerance="10"
     inkscape:pageopacity="0"
     inkscape:pageshadow="2"
     inkscape:window-width="1920"
     inkscape:window-height="1004"
     id="namedview11"
     showgrid="false"
     inkscape:zoom="0.20344828"
     inkscape:cx="515.19917"
     inkscape:cy="660.44692"
     inkscape:window-x="1680"
     inkscape:window-y="0"
     inkscape:window-maximized="1"
     inkscape:current-layer="svg2"
     inkscape:snap-object-midpoints="true"
     inkscape:snap-center="true" />
  <metadata
     id="metadata2975">image/svg+xmlen<rdf:RDF>
  <cc:Work
     rdf:about="">
    <dc:format>image/svg+xml</dc:format>
    <dc:type
       rdf:resource="http://purl.org/dc/dcmitype/StillImage" />
    <dc:title></dc:title>
  </cc:Work>
</rdf:RDF>
</metadata>
  <path
     style="font-size:medium;font-style:normal;font-variant:normal;font-weight:normal;font-stretch:normal;text-indent:0;text-align:start;text-decoration:none;line-height:normal;letter-spacing:normal;word-spacing:normal;text-transform:none;direction:ltr;block-progression:tb;writing-mode:lr-tb;text-anchor:start;baseline-shift:baseline;opacity:0.372;color:#000000;fill:#e4e4e4;fill-opacity:1;fill-rule:nonzero;stroke:#a35151;stroke-width:0;stroke-linecap:round;stroke-linejoin:miter;stroke-miterlimit:4;stroke-opacity:1;stroke-dashoffset:0;marker:none;visibility:visible;display:inline;overflow:visible;enable-background:accumulate;font-family:Sans;-inkscape-font-specification:Sans"
     d="m 509.65625,210.59375 c -21.93919,0 -46.04226,9.01038 -61.03125,30.8125 -12.80598,18.62685 -15.09405,39.73339 -14.125,59.03125 l -0.0312,0 c 0,11.64688 0.11308,11.73284 0.0312,0.75 0.0292,0.53249 -0.003,1.09549 0.0312,1.625 l 0.0312,0 c -2.8e-4,0.0833 -2.8e-4,0.16667 0,0.25 -0.29852,-4.53128 -0.32698,-4.24941 0.0312,0.8125 0.0877,1.29873 0.24428,2.59281 0.46875,3.875 0.10739,0.94068 0.16661,1.93305 0.3125,2.84375 -13.66464,10.75149 -23.48397,24.96473 -30.25,39.59375 0.41801,-0.88618 -0.1,0.27074 -0.125,0.3125 -0.006,0.0126 -0.0255,0.0186 -0.0312,0.0312 -0.0775,0.15572 0.3693,-0.78422 -0.125,0.3125 -3.35306,7.22273 -7.4169,15.59598 -11.125,24.6875 -3.27164,8.02142 -8.59375,20.3325 -8.59375,36.6875 0,16.86296 8.90689,31.24298 12.1875,35.9375 4.68348,6.70201 9.51275,11.85747 13.84375,16.21875 2.61109,2.62934 5.1398,4.96206 7.65625,7.3125 0.54576,15.28235 2.63382,36.10045 8.78125,62.28125 1.47179,26.11256 4.41925,57.49263 6.78125,84.6875 l -8.09375,0 c -9.1809,0.008 -18.31258,3.59292 -25.04599,9.83392 -6.73342,6.24101 -11.00065,15.07465 -11.70401,24.22858 -8.68282,0.67886 -17.0801,4.55213 -23.23284,10.71621 -6.15275,6.16408 -10.01054,14.56849 -10.67341,23.25254 l -6.53125,0 c -9.65288,0.004 -19.24497,3.97879 -26.07059,10.80441 -6.82562,6.82562 -10.80086,16.41771 -10.80441,26.07059 l 0,23.0625 c 0.004,9.65288 3.97879,19.24497 10.80441,26.07059 6.82562,6.82562 16.41771,10.80086 26.07059,10.80441 l 91.375,0 c 15.35569,21.87094 40.70568,36.15625 69.1875,36.15625 28.48979,0 53.85462,-14.27453 69.21875,-36.15625 l 91.34375,0 c 9.65288,-0.004 19.24497,-3.97879 26.07059,-10.80441 6.82562,-6.82562 10.80086,-16.41771 10.80441,-26.07059 l 0,-23.0625 c -0.004,-9.65288 -3.97879,-19.24497 -10.80441,-26.07059 -6.82562,-6.82562 -16.41771,-10.80086 -26.07059,-10.80441 l -3.25,0 c -0.65675,-8.69425 -4.51603,-17.11061 -10.67563,-23.28155 -6.1596,-6.17095 -14.56885,-10.0457 -23.26187,-10.71845 -0.71035,-9.14333 -4.97623,-17.96424 -11.7025,-24.1982 -6.72627,-6.23397 -15.84538,-9.81838 -25.01625,-9.83305 l -8.75,0 -1.59375,0 c 2.36356,-27.17908 5.30819,-58.54834 6.78135,-84.6562 6.25333,-26.63461 8.32256,-47.81164 8.8125,-63.15625 2.47489,-2.38241 4.3757,-4.08696 7.03125,-6.8125 4.11059,-4.21894 8.89979,-9.27718 13.5625,-16 3.2463,-4.6806 12.03125,-19.0693 12.03125,-35.8125 0,-16.21798 -5.13585,-28.46365 -8.46875,-36.78125 -3.62458,-9.04552 -7.71514,-17.48009 -11.34375,-24.8125 0.0866,0.18898 0.0157,0.0373 -0.21875,-0.46875 -0.0873,-0.18836 -0.193,-0.37423 -0.28125,-0.5625 -6.76883,-14.44094 -16.51686,-28.51447 -30.09375,-39.15625 0.0391,-0.18708 0.11883,-0.34283 0.15625,-0.53125 0.0215,-0.12489 0.0423,-0.24989 0.0625,-0.375 l 0.0937,-0.5 c 0.13769,-0.74623 0.25235,-1.4967 0.34375,-2.25 l 0.0625,-0.5 c 0.0221,-0.17693 0.043,-0.35402 0.0625,-0.53125 2.32277,-21.05075 0.15934,-44.25565 -13.59375,-64.09375 -14.88419,-21.46965 -38.79947,-31.0625 -61.3125,-31.0625 z m 0,518.125 c 2.691,0 6.375,3.684 6.375,6.375 0,2.691 -3.63867,6.34375 -6.375,6.34375 -2.73633,0 -6.34375,-3.60742 -6.34375,-6.34375 0,-2.73633 3.65275,-6.375 6.34375,-6.375 z"
     id="path3902"
     inkscape:connector-curvature="0"
     sodipodi:nodetypes="cscccccccccccccssssccccscsccsccsccsccsccsccscscccccssssccccccccscsccsssss" />
  <path
     inkscape:connector-curvature="0"
     class="st0"
     d="m 585.69907,412.55681 c 0,-9.31384 -8.2214,-26.90664 -15.4152,-41.39483 -6.1662,-13.45332 -17.4707,-24.83689 -26.7198,-27.94151 -14.3876,-5.17435 -18.4983,-6.20922 -18.4983,-12.41844 0,-7.2441 5.1384,-10.34871 7.1937,-21.73228 1.0277,-1.03488 3.0831,-3.10462 4.1108,-8.27897 3.0831,-27.94151 -8.2215,-41.39483 -26.7198,-41.39483 -18.4983,0 -28.7752,12.41845 -26.7198,41.39483 0,5.17435 3.0831,7.24409 4.1107,8.27897 2.0554,11.38357 7.1938,14.48818 7.1938,21.73228 0,5.17435 -5.1384,7.24409 -18.4983,12.41844 -9.2492,3.10462 -20.5537,14.48819 -26.7198,27.94151 -7.1938,15.52306 -15.4153,32.08099 -15.4153,41.39483 0,9.31383 20.5537,25.87176 33.9136,38.29021 0,0 -4.1107,26.90664 8.2215,76.58042 2.0554,40.35995 9.2492,102.4522 10.2769,134.53318 h 48.3011 c 1.0277,-32.08098 8.2215,-94.17323 10.2769,-134.53318 12.3322,-49.67378 8.2214,-76.58042 8.2214,-76.58042 12.3322,-12.41845 32.8859,-28.97638 32.8859,-38.29021 z"
     id="path9"
     style="color:#000000;fill:none;stroke:#000000;stroke-width:23.20000076;stroke-linecap:butt;stroke-linejoin:miter;stroke-miterlimit:4;stroke-opacity:1;stroke-dasharray:none;stroke-dashoffset:0;marker:none;visibility:visible;display:inline;overflow:visible;enable-background:accumulate" />
  <path
     sodipodi:type="arc"
     style="color:#000000;fill:none;stroke:#000000;stroke-width:30.33652306;stroke-linecap:butt;stroke-linejoin:miter;stroke-miterlimit:4;stroke-opacity:1;stroke-dasharray:none;stroke-dashoffset:0;marker:none;visibility:visible;display:inline;overflow:visible;enable-background:accumulate"
     id="path2985"
     sodipodi:cx="510.26483"
     sodipodi:cy="737.74365"
     sodipodi:rx="69.120766"
     sodipodi:ry="69.120766"
     d="m 579.3856,737.74365 a 69.120766,69.120766 0 1 1 -138.24153,0 69.120766,69.120766 0 1 1 138.24153,0 z"
     transform="matrix(0.56558888,0,0,0.56558888,221.05031,318.17685)" />
  <path
     style="font-size:medium;font-style:normal;font-variant:normal;font-weight:normal;font-stretch:normal;text-indent:0;text-align:start;text-decoration:none;line-height:normal;letter-spacing:normal;word-spacing:normal;text-transform:none;direction:ltr;block-progression:tb;writing-mode:lr-tb;text-anchor:start;baseline-shift:baseline;color:#000000;fill:#000000;fill-opacity:1;stroke:none;stroke-width:30.00000191;marker:none;visibility:visible;display:inline;overflow:visible;enable-background:accumulate;font-family:Sans;-inkscape-font-specification:Sans"
     d="m 349.07496,723.91311 0,23.04878 125.55225,0 0,-23.04878 z m 195.57908,0 0,23.04878 125.55225,0 0,-23.04878 z"
     id="path3754"
     inkscape:connector-curvature="0"
     sodipodi:nodetypes="cccccccccc" />
  <path
     style="font-size:medium;font-style:normal;font-variant:normal;font-weight:normal;font-stretch:normal;text-indent:0;text-align:start;text-decoration:none;line-height:normal;letter-spacing:normal;word-spacing:normal;text-transform:none;direction:ltr;block-progression:tb;writing-mode:lr-tb;text-anchor:start;baseline-shift:baseline;color:#000000;fill:#000000;fill-opacity:1;stroke:none;stroke-width:2.03828025;marker:none;visibility:visible;display:inline;overflow:visible;enable-background:accumulate;font-family:Sans;-inkscape-font-specification:Sans"
     d="m 392.375,689.78125 0,8.71875 0,33.90625 0,8.75 8.75,0 74.71875,0 c 0.052,-6.39958 1.89163,-12.3873 5.03125,-17.46875 l -71.03125,0 0,-16.4375 80.76007,0 c 16.03063,-10.97281 29.65834,-6.84152 42.85487,0 l 79.26006,0 0,16.4375 -74.3125,0 c 3.14414,5.08398 4.97912,11.0642 5.03125,17.46875 l 78.03125,0 8.75,0 0,-8.75 0,-33.90625 0,-8.71875 -8.75,0 -220.34375,0 z"
     id="polygon5"
     inkscape:connector-curvature="0"
     sodipodi:nodetypes="ccccccccccccccccccccccc" />
  <polyline
     transform="matrix(8.4752825,0,0,8.4752825,299.40678,317.12641)"
     class="st0"
     points="34,45 34,41 16,41 16,45 "
     id="polyline7"
     style="fill:none;stroke:#000000;stroke-width:2.03828025;stroke-miterlimit:4;stroke-opacity:1;stroke-dasharray:none" />
</svg>

<svg width="1060" height="1060" viewBox="0 0 1060 1060" fill="none" xmlns="http://www.w3.org/2000/svg">
<path opacity="0.372" d="M509.656 210.594C487.717 210.594 463.614 219.604 448.625 241.406C435.819 260.033 433.531 281.14 434.5 300.438H434.469C434.469 312.084 434.582 312.17 434.5 301.188C434.529 301.72 434.497 302.283 434.531 302.812H434.562C434.562 302.896 434.562 302.979 434.562 303.062C434.264 298.531 434.235 298.813 434.594 303.875C434.681 305.174 434.838 306.468 435.062 307.75C435.17 308.691 435.229 309.683 435.375 310.594C421.71 321.345 411.891 335.558 405.125 350.188C405.543 349.301 405.025 350.458 405 350.5C404.994 350.513 404.974 350.519 404.969 350.531C404.891 350.687 405.338 349.747 404.844 350.844C401.491 358.066 397.427 366.44 393.719 375.531C390.447 383.553 385.125 395.864 385.125 412.219C385.125 429.082 394.032 443.462 397.312 448.156C401.996 454.858 406.825 460.014 411.156 464.375C413.767 467.004 416.296 469.337 418.812 471.687C419.358 486.97 421.446 507.788 427.594 533.969C429.065 560.081 432.013 591.461 434.375 618.656H426.281C417.1 618.664 407.969 622.249 401.235 628.49C394.502 634.731 390.235 643.565 389.531 652.719C380.848 653.398 372.451 657.271 366.298 663.435C360.146 669.599 356.288 678.003 355.625 686.687H349.094C339.441 686.691 329.849 690.666 323.023 697.492C316.197 704.318 312.222 713.91 312.219 723.562V746.625C312.223 756.278 316.197 765.87 323.023 772.696C329.849 779.521 339.441 783.496 349.094 783.5H440.469C455.824 805.371 481.174 819.656 509.656 819.656C538.146 819.656 563.511 805.382 578.875 783.5H670.219C679.872 783.496 689.464 779.521 696.289 772.696C703.115 765.87 707.09 756.278 707.094 746.625V723.562C707.09 713.91 703.115 704.318 696.289 697.492C689.464 690.666 679.872 686.691 670.219 686.687H666.969C666.312 677.993 662.453 669.577 656.293 663.406C650.133 657.235 641.724 653.36 633.031 652.687C632.321 643.544 628.055 634.723 621.329 628.489C614.602 622.255 605.483 618.671 596.312 618.656H587.562H585.969C588.332 591.477 591.277 560.108 592.75 534C599.003 507.365 601.073 486.188 601.562 470.844C604.037 468.461 605.938 466.757 608.594 464.031C612.704 459.812 617.494 454.754 622.156 448.031C625.403 443.351 634.188 428.962 634.188 412.219C634.188 396.001 629.052 383.755 625.719 375.438C622.094 366.392 618.004 357.957 614.375 350.625C614.462 350.814 614.391 350.662 614.156 350.156C614.069 349.968 613.963 349.782 613.875 349.594C607.106 335.153 597.358 321.079 583.781 310.438C583.82 310.25 583.9 310.095 583.938 309.906C583.959 309.781 583.98 309.656 584 309.531L584.094 309.031C584.231 308.285 584.346 307.535 584.437 306.781L584.5 306.281C584.522 306.104 584.543 305.927 584.562 305.75C586.885 284.699 584.722 261.494 570.969 241.656C556.084 220.187 532.169 210.594 509.656 210.594H509.656ZM509.656 728.719C512.347 728.719 516.031 732.403 516.031 735.094C516.031 737.785 512.393 741.438 509.656 741.438C506.92 741.438 503.312 737.83 503.312 735.094C503.312 732.357 506.965 728.719 509.656 728.719Z" fill="#E4E4E4"/>
<path d="M585.699 412.557C585.699 403.243 577.478 385.65 570.284 371.162C564.118 357.709 552.813 346.325 543.564 343.221C529.176 338.046 525.066 337.011 525.066 330.802C525.066 323.558 530.204 320.453 532.259 309.07C533.287 308.035 535.343 305.965 536.37 300.791C539.453 272.849 528.149 259.396 509.65 259.396C491.152 259.396 480.875 271.814 482.931 300.791C482.931 305.965 486.014 308.035 487.041 309.07C489.097 320.453 494.235 323.558 494.235 330.802C494.235 335.976 489.097 338.046 475.737 343.221C466.488 346.325 455.183 357.709 449.017 371.162C441.823 386.685 433.602 403.243 433.602 412.557C433.602 421.871 454.155 438.429 467.515 450.847C467.515 450.847 463.405 477.754 475.737 527.427C477.792 567.787 484.986 629.88 486.014 661.961H534.315C535.343 629.88 542.536 567.787 544.592 527.427C556.924 477.754 552.813 450.847 552.813 450.847C565.145 438.429 585.699 421.871 585.699 412.557V412.557Z" stroke="black" stroke-width="23.2"/>
<path d="M548.744 735.437C548.745 740.571 547.735 745.655 545.77 750.399C543.806 755.143 540.927 759.453 537.296 763.084C533.666 766.715 529.356 769.596 524.613 771.561C519.869 773.526 514.785 774.537 509.65 774.537C504.516 774.537 499.432 773.526 494.688 771.561C489.945 769.596 485.635 766.715 482.005 763.084C478.374 759.453 475.495 755.143 473.53 750.399C471.566 745.655 470.556 740.571 470.557 735.437C470.556 730.302 471.566 725.218 473.53 720.474C475.495 715.73 478.374 711.42 482.005 707.789C485.635 704.158 489.945 701.277 494.688 699.312C499.432 697.347 504.516 696.336 509.65 696.336C514.785 696.336 519.869 697.347 524.613 699.312C529.356 701.277 533.666 704.158 537.296 707.789C540.927 711.42 543.806 715.73 545.77 720.474C547.735 725.218 548.745 730.302 548.744 735.437Z" stroke="black" stroke-width="17.158"/>
<path d="M349.075 723.913V746.962H474.627V723.913H349.075ZM544.654 723.913V746.962H670.206V723.913H544.654Z" fill="black"/>
<path d="M392.375 689.781V698.5V732.406V741.156H401.125H475.844C475.896 734.757 477.735 728.769 480.875 723.688H409.844V707.25H490.604C506.634 696.277 520.262 700.408 533.459 707.25H612.719V723.688H538.406C541.55 728.771 543.385 734.752 543.438 741.156H621.469H630.219V732.406V698.5V689.781H621.469H401.125H392.375Z" fill="black"/>
<path d="M587.566 698.514V664.613H435.011V698.514" stroke="black" stroke-width="17.275"/>
</svg>
